!!!COM: Haydn, Franz Joseph
!!!OPR: String Quartet in E-flat Major
!!!ONM: Opus 33, No. 2
!!!OTL: Grave 
!!!OMV: 4b
!!!SCT: H III:38
!!!SCA: Thematisch-bibliographisches Werkevererzeichnis (A. van Hoboken)
!!!YOR: Trautwein Edition
!!!ENC: Frances Bennion
!!!CDT: 1732/3/31/-1809/5/31/
!!!CNT: Oesterreich
!!!YEC: Copyright (c) 1994, 2000 Center for Computer Assisted Research in the Humanities
!!!YEM: Rights to all derivative editions reserved.
!!!YEM: Refer to licensing agreement for further details.
!!!YEN: United States of America
**kern	**kern	**kern	**kern
*k[b-e-a-]	*k[b-e-a-]	*k[b-e-a-]	*k[b-e-a-]
*E-:	*E-:	*E-:	*E-:
*clefF4	*clefC3	*clefG	*clefG
*M2/4	*M2/4	*M2/4	*M2/4
2r	2r	2r	2r
=2	=2	=2	=2
2r	2r	2r	2r
=3	=3	=3	=3
2r	2r	2r	2r
=4	=4	=4	=4
2r	2r	2r	2r
=5	=5	=5	=5
2r	2r	2r	2r
=6	=6	=6	=6
2r	2r	2r	2r
=7	=7	=7	=7
2r	2r	2r	2r
=8	=8	=8	=8
2r	2r	2r	2r
=9	=9	=9	=9
2r	2r	2r	2r
=10	=10	=10	=10
2r	2r	2r	2r
=11	=11	=11	=11
2r	2r	2r	2r
=12	=12	=12	=12
2r	2r	2r	2r
=13	=13	=13	=13
2r	2r	2r	2r
=14	=14	=14	=14
2r	2r	2r	2r
=15	=15	=15	=15
2r	2r	2r	2r
=16	=16	=16	=16
2r	2r	2r	2r
=17	=17	=17	=17
2r	2r	2r	2r
=18	=18	=18	=18
2r	2r	2r	2r
=19	=19	=19	=19
2r	2r	2r	2r
=20	=20	=20	=20
2r	2r	2r	2r
=21	=21	=21	=21
2r	2r	2r	2r
=22	=22	=22	=22
2r	2r	2r	2r
=23	=23	=23	=23
2r	2r	2r	2r
=24	=24	=24	=24
2r	2r	2r	2r
=25	=25	=25	=25
2r	2r	2r	2r
=26	=26	=26	=26
2r	2r	2r	2r
=27	=27	=27	=27
2r	2r	2r	2r
=28	=28	=28	=28
2r	2r	2r	2r
=29	=29	=29	=29
2r	2r	2r	2r
=30	=30	=30	=30
2r	2r	2r	2r
=31	=31	=31	=31
2r	2r	2r	2r
=32	=32	=32	=32
2r	2r	2r	2r
=33	=33	=33	=33
2r	2r	2r	2r
=34	=34	=34	=34
2r	2r	2r	2r
=35	=35	=35	=35
2r	2r	2r	2r
=36	=36	=36	=36
2r	2r	2r	2r
=37	=37	=37	=37
2r	2r	2r	2r
=38	=38	=38	=38
2r	2r	2r	2r
=39	=39	=39	=39
2r	2r	2r	2r
=40	=40	=40	=40
2r	2r	2r	2r
=41	=41	=41	=41
2r	2r	2r	2r
=42	=42	=42	=42
2r	2r	2r	2r
=43	=43	=43	=43
2r	2r	2r	2r
=44	=44	=44	=44
2r	2r	2r	2r
=45	=45	=45	=45
2r	2r	2r	2r
=46	=46	=46	=46
2r	2r	2r	2r
=47	=47	=47	=47
2r	2r	2r	2r
=48	=48	=48	=48
2r	2r	2r	2r
=49	=49	=49	=49
2r	2r	2r	2r
=50	=50	=50	=50
2r	2r	2r	2r
=51	=51	=51	=51
2r	2r	2r	2r
=52	=52	=52	=52
2r	2r	2r	2r
=53	=53	=53	=53
2r	2r	2r	2r
=54	=54	=54	=54
2r	2r	2r	2r
=55	=55	=55	=55
2r	2r	2r	2r
=56	=56	=56	=56
2r	2r	2r	2r
=57	=57	=57	=57
2r	2r	2r	2r
=58	=58	=58	=58
2r	2r	2r	2r
=59	=59	=59	=59
2r	2r	2r	2r
=60	=60	=60	=60
2r	2r	2r	2r
=61	=61	=61	=61
2r	2r	2r	2r
=62	=62	=62	=62
2r	2r	2r	2r
=63	=63	=63	=63
2r	2r	2r	2r
=64	=64	=64	=64
2r	2r	2r	2r
=65	=65	=65	=65
2r	2r	2r	2r
=66	=66	=66	=66
2r	2r	2r	2r
=67	=67	=67	=67
2r	2r	2r	2r
=68	=68	=68	=68
2r	2r	2r	2r
=69	=69	=69	=69
2r	2r	2r	2r
=70	=70	=70	=70
2r	2r	2r	2r
=71	=71	=71	=71
2r	2r	2r	2r
=72	=72	=72	=72
2r	2r	2r	2r
=73	=73	=73	=73
2r	2r	2r	2r
=74	=74	=74	=74
2r	2r	2r	2r
=75	=75	=75	=75
2r	2r	2r	2r
=76	=76	=76	=76
2r	2r	2r	2r
=77	=77	=77	=77
2r	2r	2r	2r
=78	=78	=78	=78
2r	2r	2r	2r
=79	=79	=79	=79
2r	2r	2r	2r
=80	=80	=80	=80
2r	2r	2r	2r
=81	=81	=81	=81
2r	2r	2r	2r
=82	=82	=82	=82
2r	2r	2r	2r
=83	=83	=83	=83
2r	2r	2r	2r
=84	=84	=84	=84
2r	2r	2r	2r
=85	=85	=85	=85
2r	2r	2r	2r
=86	=86	=86	=86
2r	2r	2r	2r
=87	=87	=87	=87
2r	2r	2r	2r
=88	=88	=88	=88
2r	2r	2r	2r
=89	=89	=89	=89
2r	2r	2r	2r
=90	=90	=90	=90
2r	2r	2r	2r
=91	=91	=91	=91
2r	2r	2r	2r
=92	=92	=92	=92
2r	2r	2r	2r
=93	=93	=93	=93
2r	2r	2r	2r
=94	=94	=94	=94
2r	2r	2r	2r
=95	=95	=95	=95
2r	2r	2r	2r
=96	=96	=96	=96
2r	2r	2r	2r
=97	=97	=97	=97
2r	2r	2r	2r
=98	=98	=98	=98
2r	2r	2r	2r
=99	=99	=99	=99
2r	2r	2r	2r
=100	=100	=100	=100
2r	2r	2r	2r
=101	=101	=101	=101
2r	2r	2r	2r
=102	=102	=102	=102
2r	2r	2r	2r
=103	=103	=103	=103
2r	2r	2r	2r
=104	=104	=104	=104
2r	2r	2r	2r
=105	=105	=105	=105
2r	2r	2r	2r
=106	=106	=106	=106
2r	2r	2r	2r
=107	=107	=107	=107
2r	2r	2r	2r
=108	=108	=108	=108
2r	2r	2r	2r
=109	=109	=109	=109
2r	2r	2r	2r
=110	=110	=110	=110
2r	2r	2r	2r
=111	=111	=111	=111
2r	2r	2r	2r
=112	=112	=112	=112
2r	2r	2r	2r
=113	=113	=113	=113
2r	2r	2r	2r
=114	=114	=114	=114
2r	2r	2r	2r
=115	=115	=115	=115
2r	2r	2r	2r
=116	=116	=116	=116
2r	2r	2r	2r
=117	=117	=117	=117
2r	2r	2r	2r
=118	=118	=118	=118
2r	2r	2r	2r
=119	=119	=119	=119
2r	2r	2r	2r
=120	=120	=120	=120
2r	2r	2r	2r
=121	=121	=121	=121
2r	2r	2r	2r
=122	=122	=122	=122
2r	2r	2r	2r
=123	=123	=123	=123
2r	2r	2r	2r
=124	=124	=124	=124
2r	2r	2r	2r
=125	=125	=125	=125
2r	2r	2r	2r
=126	=126	=126	=126
2r	2r	2r	2r
=127	=127	=127	=127
2r	2r	2r	2r
=128	=128	=128	=128
2r	2r	2r	2r
=129	=129	=129	=129
2r	2r	2r	2r
=130	=130	=130	=130
2r	2r	2r	2r
=131	=131	=131	=131
2r	2r	2r	2r
=132	=132	=132	=132
2r	2r	2r	2r
=133	=133	=133	=133
2r	2r	2r	2r
=134	=134	=134	=134
2r	2r	2r	2r
=135	=135	=135	=135
2r	2r	2r	2r
=136	=136	=136	=136
2r	2r	2r	2r
=137	=137	=137	=137
2r	2r	2r	2r
=138	=138	=138	=138
2r	2r	2r	2r
=139	=139	=139	=139
2r	2r	2r	2r
=140	=140	=140	=140
2r	2r	2r	2r
=141	=141	=141	=141
2r	2r	2r	2r
=142	=142	=142	=142
2r	2r	2r	2r
=143	=143	=143	=143
2r	2r	2r	2r
=144	=144	=144	=144
2r	2r	2r	2r
=145	=145	=145	=145
2r	2r	2r	2r
=146	=146	=146	=146
2r	2r	2r	2r
=147	=147	=147	=147
2r	2r	2r	2r
=148	=148	=148	=148
2r	2r	2r	2r
=149	=149	=149	=149
4..r	4..r	4..r	4..r
16BB-	16F	16a- 16A-	16cc 16d
=150	=150	=150	=150
4.BB-	4F	4a- 4A-	4d 4cc
.	8d	8f	32b-
.	.	.	16a-
.	.	.	32r
8r	8r	8r	32g
.	.	.	16f
.	.	.	32r
=151	=151	=151	=151
8GG	8B-	8e-	8b-
4r	4r	4r	4r
16r	16r	16r	16r
16AA-	16c	16c	16a- 16A-
=152	=152	=152	=152
4AA-	4c	4c	4A- 4a-
8BB-	8d	8A-	32g
.	.	.	16f
.	.	.	32r
8r	8r	8r	32e-
.	.	.	16d
.	.	.	32r
=153	=153	=153	=153
16EE-	8e-	8G	8e-
4..r	.	.	.
.	4.r	4.r	4.r
==	==	==	==
*-	*-	*-	*-
!!!RWG1: This file contains only pitch and duration data.
!!!RWG2: Transposing instruments are not transposed.
!!!RWG3: Spines may have incompatible meters.
!!!RWG4: Durations of rests and tied notes may be interpreted.
!!!RWG: Key is interpreted using the Humdrum key tool.
!!!GTL: 6 Quators ("Jungfernquartette")
!!!OPT: The Joke
!!!AFT: stage1
!!!END: 1997/04/15
!!!KEY: 2796662452
!!!EMD: Converted from MuseData to Humdrum Dec 16, 2000, by Andreas Kornstaedt using muse2kern.
!!!EMD: Manual editing by Craig Sapp, Nov 2001
